X:1
T:Hark! the Skies with Music Sound
T:Anonymous Composer
T:Hark! the Skies with Music Sound
T:Public Domain
T:Public Domain
C:Anonymous Composer
Z:Public Domain
%%score ( 1 2 ) ( 3 4 )
L:1/8
M:6/8
K:G
V:1 treble 
V:2 treble 
V:3 bass 
V:4 bass 
V:1
 [GB]2 [GB] [G-B][GA]G | [A-d][Ac][GB] [FA]3 | G2 [FA] [GB]2 [Ge] | [Fd]2 [E^c] [Fd]3 | %4
w: 1.~Hark! the skies * with|sic * sound, Heav’n-|ly glo- ry beams|round; Christ is|
w: 2.~Peace is come, * good-|ap- * pears; Sin-|ners wipe a- way|tears; Christ for|
w: 3.~Shep- herds, tend- * ing|by * night, Heard|the song, and saw|light; Took their|
w: 4.~Mor- tals, hail * the|ious * King! Rich-|est in- cense cheer-|bring; Praise and|
w: 5.~Glor- y, praise, * and|ing * be, Lord,|our Savior, un- to|Thee let heav-|
 [GB]2 [GB] [G-B][GA]G | [A-d][Ac][GB] [FA]3 | G2 [Ge] [Gd]2 G | [GB]2 [FA] G3 |] %8
w: born! the an- * gels|sing * Glo- ry|to the new- born||
w: you in flesh * to-|day * Hum- bly|in the man- ger||
w: reeds, and soft- * est|strains * Ech- oed|through the hap- py||
w: love Im- man- * uel’s|Name, * And His|bound- less grace pro-||
w: en and earth * a-|dore, * God o’er|all for- ev- er-||
V:2
 x5 G | x6 | G2 x4 | x6 | x6 | x6 | G2 x G x2 | x3 G3 |] %8
w: mu-||a-||||King. *||
w: will||your||||lay. *||
w: flocks||the||||plains. *||
w: glor-||ful||||claim. *||
w: bless-||Thee;||||more. *||
V:3
 [G,D]2 [G,D] [G,-D][G,C][G,B,] | [F,D]2 [G,D] [D,D]3 | [G,B,]2 [D,D] [G,D]2 [G,B,] | %3
 A,2 [A,,A,] [D,A,]3 | [G,D]2 [G,D] [G,-D][G,C][G,B,] | [F,D]2 [G,D] [D,D]-[D,D-][C,D] | %6
 [B,,D]2 [C,C] [D,B,]2 [E,B,] | [D,D]2 [D,C] [G,B,]3 |] %8
V:4
 x6 | x6 | x6 | A,2 x4 | x6 | x6 | x6 | x6 |] %8

